!!!ONB: MCCC : IFS0586_03 : Extracted Monophonic Melody
!!!COM: Schubert, Franz
!!!OPR: Piano Sonata in A major
!!!OMV: 3
!!!SCT: D.664 (published as Op.posth.120)
!!!ODT: 1819///
**kern
*staff1
*clefG2
*k[f#c#g#]
*A:
*M6/8
16bb
16aa
16gg#
16ff#
16ee
16dd
=1
8cc#
8cc#
8cc#
8dd
8.ff#
16ee
=2
4.cc#
16bb
16aa
16gg#
16ff#
16ee
16dd
=3
8cc#
8cc#
8cc#
8b
8.dd
16cc#
=4
4.a
8f#
8.a
16g#
=5
4.a
8f#
8.a
16g#
=6
16a
16b
16cc#
16dd
16ee
16ff#
16gg#
16aa
16bb
16ccc#
16ddd
16eee
=7
4.aa
8ff#
8.aa
16gg#
=8
16aa
16gg#
16aa
16gg#
16aa
16gg#
16bb
16aa
16gg#
16ff#
16ee
16dd
=9
8cc#
8cc#
8cc#
8dd
8.ff#
16ee
=10
4.cc#
16bb
16aa
16gg#
16ff#
16ee
16dd
=11
8cc#
8cc#
8cc#
8cc#
8.gg#
16bb
=12
4.aa
8a
8.ee
16gg
=13
4.ff#
16ff#
16ccc#
16eee
16ggg
16fff#
16eee
=14
16ddd
16ccc#
16bb
16aa
16gg#
16ff#
16gg#
16aa
16bb
16ccc#
16ddd
16eee
=15
8aa
8cc#
8cc#
8cc#
8.gg#
16bb
=16
4.aa
8a
8.ee
16gg
=17
4.ff#
16ff#
16ccc#
16eee
16ggg
16fff#
16eee
=18
16ddd
16ccc#
16bb
16aa
16gg#
16ff#
16gg#
16aa
16bb
16ccc#
16ddd
16eee
=19
16aa
16gg#
16ff#
16ee
16dd
16cc#
16b
16a
16g#
16f#
16e
16d
=20
16cc#
16b
16a
16g#
16f#
16e
16d
16c#
16B
16A
16G#
16F#
=21
16E#
16G#
16c#
16e#
16g#
16cc#
4.dd
=22
16E#
16G#
16c#
16e#
16g#
16cc#
4.dd
=23
16F#
16A
16d
16f#
16a
16dd
4.ff#
=24
2.bb
=25
8.bb
16aa
8cc#
8.ff#
16ee
8g#
=26
2.r
=27
16cc#
16b
16a
16g#
16f#
16e
16d
16c#
16B
16A
16G#
16F#
=28
16E#
16G#
16c#
16e#
16g#
16cc#
4.dd
=29
16E#
16G#
16c#
16e#
16g#
16cc#
4.dd
=30
16F#
16A
16d
16f#
16a
16dd
4.ff#
=31
2.bb
=32
2.ccc#
=33
8.ccc#
16bb
8gg#
8.bb
16aa
8dd#
=34
2.r
=35
4e
8f#
4.r
=36
4.r
4.g#[
=37
2.g#]
=38
4.r
4.B
=39
4e
16f#
32f#[
32f#]
8.d#
16c#
8B
=40
8B
8e
8e
4.b[
=41
4b]
8cc#
4.r
=42
8b
8f#
8f#
4.g#
=43
8b
8a
8f#
4d#
8f#
=44
8r
8r
16r
32dd#
32ee
8.dd#
16cc#
8b
=45
8b
8ee
8ee
4.gg#[
=46
2.gg#]
=47
8gg#
8ee
8ee
4.b
=48
4ee
8ff#
4.r
=49
8b
8gg#
8gg#
4bb
8aa
=50
8b
8ff#
8ff#
4aa
8gg#
=51
8bb
8aa
8ff#
4dd#
8ff#
=52
2.r
=53
16ee
16ff#
16gg#
16aa
16bb
16ccc#
16ccc
16aa
16gg#
16ff#
16ee
16dd#
=54
16cc#
16dd#
16ee
16ff#
16gg#
16aa
16gg#
16ff#
16ee
16dd
16cc#
16b
=55
16a
16b
16cc#
16dd
16ee
16ff#
16ee#
16dd
16cc#
16b
16a
16g#
=56
4r
16aa
16cc#
16g#
16b
16ee
16gg#
16bb
16b
=57
16g#
16b
16ee
16g#
16ee
16g#
16gg#
16ff#
16dd#
16g#
16f#
16d#
=58
16e
16g#
16cc#
16e
16cc#
16e
16ee
16dd
16b
16e
16d
16B
=59
16c#
16e
16a
16cc#
16ee
16aa
16ccc#
16bb
16gg#
16cc#
16b
16g#
=60
16f#
16a
16cc#
16a
16aa
16cc#
16g#
16b
16ee
16gg#
16bb
16b
=61
16G#
16A
16B
16c#
16d#
16e
16f#
16g#
16a
16b
16cc#
16dd#
=62
16ee
16bb
16aa
16gg#
16ff#
16ee
16dd#
16cc#
16b
16a
16g#
16f#
=63
16G#
16A
16B
16c#
16d#
16e
16ff#
16gg#
16aa
16bb
16ccc#
16ddd#
=64
16eee
16bbb
16aaa
16ggg#
16fff#
16eee
16ddd#
16ccc#
16bb
16aa
16gg#
16ff#
=65
8ee
16G#
16A
16B
16c#
16d#
16e
16f#
16g#
16a
16b
=66
16cc#
16dd#
16ee
16ff#
16gg#
16aa
16bb
16ccc#
16ddd#
16eee
16fff#
16ggg#
=67
4.aaa
4.aaa
=68
4.aaa
4.aaa
=69
8b
8gg#
8gg#
4bb
8aa
=70
8b
8ff#
8ff#
4aa
8gg#
=71
8bbb
8aaa
8fff#
4ddd#
8fff#
=72
16E
16F#
16G#
16A
16B
16c#
16d#
16e
16f#
16g#
16a
16b
=73
16cc#
16dd#
16ee
16ff#
16gg#
16aa
16bb
16ccc#
16ddd#
16eee
16fff#
16ggg#
=74
8.aaa
16aa
8aa
8.aaa
16aa
8aa
=75
8.aaa
16aa
8aa
8.aaa
16aa
8aa
=76
16b
16gg#
16ff##
16gg#
16ff##
16gg#
4bb
8aa
=77
16b
16ff#
16ee#
16ff#
16ee#
16ff#
4aa
8gg#
=78
16ddd#
16ccc#
16bb
16aa
16gg#
16ff#
16dd#
16ee
16ff#
16gg#
16aa
16bb
=79
4.ee
4.bb
=80
4.eee
4.bbb
=81
4.eeee
4.ee
=82
4.ee
4.ee
=83
16e
16f#
16a
16g#
16b
16a
16cc#
16b
16dd
16cc#
16ee
16dd#
=84
*M3/8
16ff#
16ee
16gg#
16ff#
16aa
16gg#
=85
16bb
16aa
16gg#
16ff#
16ee
16dd
=86
*M6/8
8cc#
8cc#
8cc#
8dd
8.ff#
16ee
=87
4.cc#
16bb
16aa
16gg#
16ff#
16ee
16dd
=88
8cc#
8cc#
8cc#
8b
8.dd
16cc#
=89
4.a
8f#
8.a
16g#
=90
4.a
8f#
8.a
16g#
=91
16a
16b
16cc#
16dd
16ee
16ff#
16gg#
16aa
16bb
16ccc#
16ddd
16eee
=92
4.aa
8ff#
8.aa
16gg#
=93
16aa
16gg#
16aa
16gg#
16aa
16gg#
16bb
16aa
16gg#
16ff#
16ee
16dd
=94
8cc#
8cc#
8cc#
8dd
8.ff#
16ee
=95
4.cc#
16bb
16aa
16gg#
16ff#
16ee
16dd
=96
8cc#
8cc#
8cc#
8cc#
8.gg#
16bb
=97
4.aa
8a
8.ee
16gg
=98
4.ff#
16ff#
16ccc#
16eee
16ggg
16fff#
16eee
=99
16ddd
16ccc#
16bb
16aa
16gg#
16ff#
16gg#
16aa
16bb
16ccc#
16ddd
16eee
=100
8aa
8cc#
8cc#
8cc#
8.gg#
16bb
=101
4.aa
8a
8.ee
16gg
=102
4.ff#
16ff#
16ccc#
16eee
16ggg
16fff#
16eee
=103
16ddd
16ccc#
16bb
16aa
16gg#
16ff#
16gg#
16aa
16bb
16ccc#
16ddd
16eee
=104
16aa
16gg#
16ff#
16ee
16dd
16cc#
16b
16a
16g#
16f#
16e
16d
=105
16cc#
16b
16a
16g#
16f#
16e
16d
16c#
16B
16A
16G#
16F#
=106
16E#
16G#
16c#
16e#
16g#
16cc#
4.dd
=107
16E#
16G#
16c#
16e#
16g#
16cc#
4.dd
=108
16F#
16A
16d
16f#
16a
16dd
4.ff#
=109
2.bb
=110
8.bb
16aa
8cc#
8.ff#
16ee
8g#
=111
2.r
=112
16cc#
16b
16a
16g#
16f#
16e
16d
16c#
16B
16A
16G#
16F#
=113
16E#
16G#
16c#
16e#
16g#
16cc#
4.dd
=114
16E#
16G#
16c#
16e#
16g#
16cc#
4.dd
=115
16F#
16A
16d
16f#
16a
16dd
4.ff#
=116
2.bb
=117
2.ccc#
=118
8.ccc#
16bb
8gg#
8.bb
16aa
8dd#
=119
2.r
=120
4e
8f#
4.r
=121
4.r
4.g#[
=122
2.g#]
=123
4.r
4.B
=124
4e
16f#
32f#[
32f#]
8.d#
16c#
8B
=125
8B
8e
8e
4.b[
=126
4b]
8cc#
4.r
=127
8b
8f#
8f#
4.g#
=128
8b
8a
8f#
4d#
8f#
=129
8r
8r
16r
32dd#
32ee
8.dd#
16cc#
8b
=130
8b
8ee
8ee
4.gg#[
=131
2.gg#]
=132
8gg#
8ee
8ee
4.b
=133
4ee
8ff#
4.r
=134
8b
8gg#
8gg#
4bb
8aa
=135
8b
8ff#
8ff#
4aa
8gg#
=136
8bb
8aa
8ff#
4dd#
8ff#
=137
2.r
=138
16ee
16ff#
16gg#
16aa
16bb
16ccc#
16ccc
16aa
16gg#
16ff#
16ee
16dd#
=139
16cc#
16dd#
16ee
16ff#
16gg#
16aa
16gg#
16ff#
16ee
16dd
16cc#
16b
=140
16a
16b
16cc#
16dd
16ee
16ff#
16ee#
16dd
16cc#
16b
16a
16g#
=141
4r
16aa
16cc#
16g#
16b
16ee
16gg#
16bb
16b
=142
16g#
16b
16ee
16g#
16ee
16g#
16gg#
16ff#
16dd#
16g#
16f#
16d#
=143
16e
16g#
16cc#
16e
16cc#
16e
16ee
16dd
16b
16e
16d
16B
=144
16c#
16e
16a
16cc#
16ee
16aa
16ccc#
16bb
16gg#
16cc#
16b
16g#
=145
16f#
16a
16cc#
16a
16aa
16cc#
16g#
16b
16ee
16gg#
16bb
16b
=146
16G#
16A
16B
16c#
16d#
16e
16f#
16g#
16a
16b
16cc#
16dd#
=147
16ee
16bb
16aa
16gg#
16ff#
16ee
16dd#
16cc#
16b
16a
16g#
16f#
=148
16G#
16A
16B
16c#
16d#
16e
16ff#
16gg#
16aa
16bb
16ccc#
16ddd#
=149
16eee
16bbb
16aaa
16ggg#
16fff#
16eee
16ddd#
16ccc#
16bb
16aa
16gg#
16ff#
=150
8ee
16G#
16A
16B
16c#
16d#
16e
16f#
16g#
16a
16b
=151
16cc#
16dd#
16ee
16ff#
16gg#
16aa
16bb
16ccc#
16ddd#
16eee
16fff#
16ggg#
=152
4.aaa
4.aaa
=153
4.aaa
4.aaa
=154
8b
8gg#
8gg#
4bb
8aa
=155
8b
8ff#
8ff#
4aa
8gg#
=156
8bbb
8aaa
8fff#
4ddd#
8fff#
=157
16E
16F#
16G#
16A
16B
16c#
16d#
16e
16f#
16g#
16a
16b
=158
16cc#
16dd#
16ee
16ff#
16gg#
16aa
16bb
16ccc#
16ddd#
16eee
16fff#
16ggg#
=159
8.aaa
16aa
8aa
8.aaa
16aa
8aa
=160
8.aaa
16aa
8aa
8.aaa
16aa
8aa
=161
16b
16gg#
16ff##
16gg#
16ff##
16gg#
4bb
8aa
=162
16b
16ff#
16ee#
16ff#
16ee#
16ff#
4aa
8gg#
=163
16ddd#
16ccc#
16bb
16aa
16gg#
16ff#
16dd#
16ee
16ff#
16gg#
16aa
16bb
=164
4.ee
4.bb
=165
4.eee
4.bbb
=166
4.eeee
4.ee
=167
4.ee
4.ee
=168
16e
16f#
16a
16g#
16b
16a
16cc#
16b
16dd
16cc#
16ee
16dd#
=169
*M3/8
16ff#
16ee
16gg#
16ff#
16aa
16gg#
=170
16bb
16aa
16gg#
16ff#
16ee
16dd
=171
*M6/8
8cc#
8cc#
8cc#
8dd
8aa
8dd
=172
4.cc#
16bb
16aa
16gg#
16ff#
16ee
16dd
=173
8cc#
8cc#
8cc#
16dd
16ff#
16bb
16aa
16ff#
16dd
=174
4.cc#
8dd
8.ff#
16dd
=175
4.cc#
8dd
8.ff#
16dd
=176
4.cc#
8b
8.dd
16b
=177
8a
8.cc#
16a
8g#
8.cc#
16e#
=178
4.f#
16ee
16dd
16cc#
16b
16a
16g#
=179
4.f#
16ee
16dd
16cc#
16b
16a
16g#
=180
16f#
16g#
16a
16b
16cc#
16dd
16g#
16a
16b
16cc#
16dd
16ee
=181
4.a
16bb
16ff#
16ee
16dd
16cc#
16b
=182
4.a
16bb
16ff#
16ee
16dd
16cc#
16b
=183
16a
16b
16cc#
16dd
16ee
16ff#
16cc
16cc#
16dd#
16ee
16ff#
16gg#
=184
4.cc#
16f#
16e
16d#
16c#
16B
16A
=185
4.G#
16a
16g#
16g
16e
16d#
16c#
=186
8B
8d#
8g#
16cc#
16b
16a#
16g
16f#
16e
=187
8d
8f#
8b
16ee
16dd
16cc#
16b
16a
16g
=188
16f#
16g#
16a#
16b
16cc#
16ee#
16ff#
16gg#
16aa#
16bb
16ccc#
16eee#
=189
16fff#
16ggg
16fff#
16ggg
16fff#
16ggg
16fff#
16ggg
16fff#
16ggg
16fff#
16ggg
=190
16fff#
16ggg
16eee
16ddd
16ccc#
16bb
16aa#
16gg
16ff#
16ee
16dd
16cc#
=191
16b
16a#
16g
16f#
16e
16d
16c#
16B
16A#
16G
16F#
16G
=192
4.F#
16A#
16c#
16f#
16a#
16cc#
16ff#
=193
4.ff#
16a#
16cc#
16ff#
16aa#
16ccc#
16fff#
=194
4.ggg
16B
16d
16g
16b
16dd
16gg
=195
4.gg
16cc
16ee
16gg
16ccc
16eee
16ggg
=196
4.aaa
16c#
16e
16a
16cc#
16ee
16aa
=197
4.aa
16dd
16ee#
16aa
16ddd
16eee#
16aaa
=198
2.aaa
=199
16ggg#
16eee#
16eee
16ddd
16ccc
16aa#
16aa
16gg#
16ee#
16ee
16dd
16ee
=200
4.ee
16G#
16B
16e
16g#
16b
16ee
=201
4.ee
16g#
16b
16ee
16gg#
16bb
16eee
=202
4.eee
16G#
16d
16e
16g#
16dd
16ee
=203
4.ee
16g#
16dd
16ee
16gg#
16ddd
16eee
=204
16eee
16ddd#
16fff#
16eee
16ddd
16ccc#
16bb
16aa
16gg#
16aa
16ccc#
16eee
=205
16ggg
16fff#
16aaa
16ggg
16fff#
16eee
16ddd
16ccc#
16bb
16ccc#
16eee
16ggg
=206
16bbb
16aaa#
16cccc#
16bbb
16aaa
16ggg
16fff#
16eee
16ggg
16fff#
16aaa
16ggg
=207
16fff#
16eee
16ddd
16ccc#
16ddd
16ccc#
16eee
16ddd
16ccc#
16bb
16aa
16gg
=208
8ff#
8ff#
8ff#
8gg
8.bb
16aa
=209
4.ff#
16eee
16ddd
16ccc#
16bb
16aa
16gg
=210
8ff#
8ff#
8ff#
8ee
8.gg
16ff#
=211
4.dd
8b
8.dd
16cc#
=212
4.dd
8b
8.dd
16cc#
=213
16dd
16ee
16ff#
16gg
16aa
16bb
16ccc#
16ddd
16eee
16fff#
16ggg
16aaa
=214
4.ddd
8bb
8.ddd
16ccc#
=215
16ddd
16ccc#
16ddd
16ccc#
16ddd
16ccc#
16eee
16ddd
16ccc#
16bb
16aa
16gg
=216
8ff#
8ff#
8ff#
8gg
8.bb
16aa
=217
4.ff#
16eee
16ddd
16ccc#
16bb
16aa
16gg
=218
8ff#
8ff#
8ff#
8ff#
8.ccc#
16eee
=219
4.ddd
8dd
8.aa
16ccc
=220
4.bb
16bb
16fff#
16aaa
16cccc
16bbb
16aaa
=221
16ggg
16fff#
16eee
16ddd
16ccc#
16bb
16ccc#
16ddd
16eee
16fff#
16ggg
16aaa
=222
8ddd
8f#
8f#
8f#
8.cc#
16ee
=223
4.dd
8d
8.a
16cc
=224
4.b
16b
16ff#
16aa
16ccc
16bb
16aa
=225
16gg
16ff#
16ee
16dd
16cc#
16b
16cc#
16dd
16ee
16ff#
16gg
16aa
=226
16dd
16cc#
16b
16a
16g
16f#
16e
16d
16c#
16B
16A
16G
=227
16f#
16e
16d
16c#
16B
16A
16G
16F#
16E
16D
16C#
16BB
=228
16A#
16c#
16f#
16a#
16cc#
16ff#
4.gg
=229
16A#
16c#
16f#
16a#
16cc#
16ff#
4.gg
=230
16B
16d
16g
16b
16dd
16gg
4.bb
=231
2.eee
=232
8.ggg
16eee#
8aa
8.ddd
16ccc
8ee
=233
2.r
=234
16a
16g
16e#
16e
16d
16c
16A#
16A
16G
16E#
16E
16D
=235
16C#
16E
16A
16c#
16e
16a
4.a#
=236
16C#
16E
16A
16c#
16e
16a
4.a#
=237
16D
16E#
16A#
16d
16e#
16a#
4.dd
=238
2.gg
=239
2.aa
=240
8.aa
16ee
8cc#
8.ff#
16ee
8g#
=241
2.r
=242
4a
16b
32b[
32b]
8.g#
16f#
8e
=243
8e
8a
8a
4.cc#[
=244
2.cc#]
=245
8cc#
8a
8a
4.e
=246
4a
16b
32b[
32b]
8.g#
16f#
8e
=247
8e
8a
8a
4.ee[
=248
4ee]
16ff#
32ff#[
32ff#]
8.dd#
16cc#
8dd#
=249
8ee
8b
8b
4.cc#
=250
8ee
8dd
8b
4g#
8b
=251
4aa
16bb
32bb[
32bb]
8.gg#
16ff#
8ee
=252
8ee
8aa
8aa
4.ccc#[
=253
2.ccc#]
=254
8ccc#
8aa
8aa
4.ee
=255
4aa
16bb
32bb[
32bb]
8.gg#
16ff#
8ee
=256
8ee
8ccc#
8ccc#
4eee
8ddd
=257
8ee
8bb
8bb
4ddd
8ccc#
=258
8eee
8ddd
8bb
4gg#
8bb
=259
2.r
=260
16aa
16bb
16ccc#
16ddd
16eee
16fff#
16eee#
16ddd
16ccc#
16bb
16aa
16gg#
=261
16ff#
16gg#
16aa
16bb
16ccc#
16ddd
16ccc#
16bb
16aa
16gg
16ff#
16ee
=262
16dd
16ee
16ff#
16gg
16aa
16bb
16aa#
16gg
16ff#
16ee
16dd
16cc#
=263
16b
16dd
16ff#
16dd
16ddd
16ff#
16cc#
16ee
16aa
16ccc#
16eee
16ee
=264
16cc#
16ee
16aa
16cc#
16aa
16cc#
16ccc#
16bb
16gg#
16cc#
16b
16g#
=265
16a
16cc#
16ff#
16a
16ff#
16a
16aa
16gg
16ee
16a
16g
16e
=266
16f#
16a
16dd
16ff#
16aa
16ddd
16fff#
16eee
16ccc#
16ff#
16ee
16cc#
=267
16b
16dd
16ff#
16dd
16ddd
16ff#
16cc#
16ee
16aa
16ccc#
16eee
16ee
=268
4.aa
16B
16c#
16d
16e
16f#
16g#
=269
16a
16ee
16dd
16cc#
16b
16a
16g#
16f#
16e
16d
16c#
16B
=270
4.r
16b
16cc#
16dd
16ee
16ff#
16gg#
=271
16aa
16eee
16ddd
16ccc#
16bb
16aa
16gg#
16ff#
16ee
16dd
16cc#
16b
=272
16AA
16BB
16C#
16D
16E
16F#
16G#
16A
16B
16c#
16d
16e
=273
16f#
16g#
16a
16b
16cc#
16dd
16ee
16ff#
16gg#
16aa
16bb
16ccc#
=274
4.ddd
4.ddd
=275
4.ddd
4.ddd
=276
8e
8cc#
8cc#
4ee
8dd
=277
8e
8b
8b
4dd
8cc#
=278
8eee
8ddd
8bb
4gg#
8bb
=279
16AA
16BB
16C#
16D
16E
16F#
16G#
16A
16B
16c#
16d
16e
=280
16f#
16g#
16a
16b
16cc#
16dd
16ee
16ff#
16gg#
16aa
16bb
16ccc#
=281
8.ddd
16dd
8dd
8.ddd
16dd
8dd
=282
8.ddd
16dd
8dd
8.ddd
16dd
8dd
=283
16ee
16ccc#
16bb#
16ccc#
16bb#
16ccc#
4eee
8ddd
=284
16ee
16bb
16aa#
16bb
16aa#
16bb
4ddd
8ccc#
=285
16ggg#
16fff#
16eee
16ddd
16ccc#
16bb
16gg#
16aa
16bb
16ccc#
16ddd
16eee
=286
4.aa
4.ee
=287
4.aa
4.eee
=288
4.aaa
4.aa
=289
4.aa
4.aa
=290
16g#
16a
16b
16a
16cc#
16b
16dd
16cc#
16ee
16dd
16ee
16dd#
=291
16ff#
16ee
16gg#
16ff#
16aa
16gg#
16bb
16aa
16gg#
16ff#
16ee
16dd
=292
8cc#
8cc#
8cc#
8dd
8.ff#
16ee
=293
4.cc#
16bb
16aa
16gg#
16ff#
16ee
16dd
=294
8cc#
8cc#
8cc#
8b
8.dd
16cc#
=295
4a
16b
16cc#
8dd
8.ff#
16ee
=296
4cc#
16dd
16cc#
8b
8.dd
16cc#
=297
16a
16cc#
16ee
16aa
16bb
16ccc#
8ddd
8.fff#
16eee
=298
8ccc#
8.fff#
16eee
8bb
8.ddd
16ccc#
=299
16aa
16bb
16gg#
16aa
16bb
16ccc#
8ddd
8.eee#
16eee
=300
8ccc#
8.fff#
16eee
8bb
8.dddd
16ggg#
=301
4.aaa
4.ee
=302
4.aa
4.r
==
*-
